X:5
T:Camp THO4.005, The
M:2/4
L:1/8
Z:vmp. Peter Dunk 2010/11.from a transcription by Fynn Titford-Mock 2007
B:Thompson's Compleat Collection of 200 Favourite Country Dances Volume IV.
Q:1/4=100
K:D
A|d>fd>f|g/f/e/d/ d/c/B/A/|d>fd>f|aaa>A|d>fd>f|g/f/e/d/ d/c/B/A/|Bgec|d3:|
|:c/d/|ecfd|geaf|B2 cd|c/d/c/B/ Ac/d/|ecfd|geaf|G>b a/g/f/e/|d3:|
